X:1
T: The Prince
N:
C:
S:3 times
A:
O:
R:
M:4/4
K:Am
I:speed 180
%W:   A1
% voice 1 (1 lines, 20 notes)
K:Am
M:4/4
L:1/16
E4 |A4 c4 B4 e4 |d2 c2 B2 A2 ^G4 ^F2 E2 |A4 c4 B4 e4 |c6 B2 A4 E4 |
%W:  A2
% voice 1 (1 lines, 19 notes)
A4 c4 B4 e4 |d2 c2 B2 A2 ^G4 ^F2 E2 |A4 c4 B4 e4 |c6 B2 A4 B4 |
%W:  B1
% voice 1 (1 lines, 17 notes)
c4 e4 d4 g4 |f2 e2 d2 c2 d4 G4 |c4 A4 f4 e2 d2 |d8 c8 |
%W:
% voice 1 (1 lines, 21 notes)
B4 B2 c2 d4 c2 B2 |e4 A4 G4 g4 |e4 d2 c2 B2 c2 d2 e2 |c6 B2 A4 B4 |
%W:  B2
% voice 1 (1 lines, 17 notes)
c4 e4 d4 g4 |f2 e2 d2 c2 d4 G4 |c4 A4 f4 e2 d2 |d8 c8 |
%W:
% voice 1 (1 lines, 18 notes)
B4 B2 c2 d4 c2 B2 |e4 A4 G4 g4 |e4 d2 c2 B2 c2 d2 e2 |A12 ||
